X: 32032
T: Peggy Of Darby
R: reel
M: 4/4
K: Dmajor
A|Addd dcBA|d2 de dcBA|Addc dfaf|ecA A3f|
ecA A3f|ge(fg) a2 (f>e)|dBAG (GF)GA|BcdB ecAG|FA d2d2:|
|:A|FA (de) d2 (3ABc|Bd G2 G3B|eg(fa) (gf)ed|ce A2 A3g|
fefg afed|dBAG (GF)GA|BcdB edcB|A2d2d2:|

